X:136
T: Schne Jdin (2-38) S. 121
N: P0911
O: Lothringen
S: PINCK, Louis: Verklingende Weisen, Bd 2, Metz 1928]
R: Liebe, Jdin zu Christin bekehrt]
M: 2/4
L: 1/8
K: D
D2 | A2A2E2GG | F2E2D2
d2 | c2B2 | A2c2B2 | A6
A2 | FFA2F2A2 | B4B2
B2 | B2B2d2B2 | A3GF4
G4 | F3FE2 | G2B2A2G2 | F6
A2 | FFA2F2A2 | B4B2
B2 | B2B2=c2B2 | A3FF4
G4 | F3FE2 | G2B2A2G2 | F6

